X: 17
T: Jack in the Box
P: P.9 #1
%R: jig
B: "Twenty Four Favourite Dances for the Year 1784", Thomas Straight, ed. p.9 #1
F: http://www.vwml.org/browse/browse-collections-dance-tune-books/browse-straights1784
Z: 2014 John Chambers <jc:trillian.mit.edu>
M: 6/8
L: 1/8
K: D
% - - - - - - - - - - - - - - - - - - - - - - - - - - - - -
|:\
D3 A>BA | d2A (F/G/A)F | D2A d>ed | a2g (f/g/a)f |\
e2e A>BA | d2A (F/G/A)F | D2d afd | ege d3 :|
|:\
A3 d>ed | a>ba f>gf | b3 gag | fed e3 |\
A2A d>ed | a>ba f>gf | afd gec | dAF D3 :|
% - - - - - - - - - - Dance description - - - - - - - - - -
%%begintext align
%% Foot it and half right and left .|. the same back
%% again :|. cross over one Cu: and turn .|: Right hands
%% and left :|:
%%endtext

%%sep 2 1 500
%%sep 1 1 500

